X: 1
T: The (New) King's Reel
R: reel
Z: 2005 John Chambers <jc:trillian.mit.edu>
S: handwritten MS in BSFC collection
N: From the playing of Buddy MacMasters. Transc. By Kate Dunlay
M: C|
L: 1/8
K: Amix=g
B,| ("A"G,A,) EA, FA,EA, | ("A"G,A,)ED CA,A,B, | ("A"G,A,) EA, FA,EF | "G"G2 DC B,G, G, :|
d | "A"(3cBA eA aeed | "A"(3cBA eA cAAd | "A"(3cBA eA agef | "G"gddc BGG ||
B | "A"(3cBA eA aeed | "A"(3cBA eA cAAB | "C"=c2dc "G"B2Gc | "G"Bgdg BGG |]
P: Variation:
B,| "Am"G,A,EA, FA,EA, | "Am"G,A,ED CA,A,B, | "Am"G,A,EA, FA,EF | "G"G2D=C B,G,G, :|
B | "A"cA A/A/A eaed | "A"cAeA cAAd | "A"cA A/A/A agef | "G"gedg BGG ||
B | "A"cA A/A/A eaed | "A"cAeA cAAc | "D"dfed "A"c2Ac | "G"Bgdg BGG |]
